X:74
T:Painters Sett Of Quadrilles No.4. Le4.074, The
B:L.Leadley MS#4 c1850
Z:Village Music Project, 2016 Steve Mansfield
M:2/4
L:1/8
Q:2/4=60
K:G
g/a/ | b2 ag | c'bag | fdef | g/f/g/a/ g2 |
b2 ag | c'bag | fdef | a2 g H |
|: f/g/ | aabb | a/g/f/e/ d/f/a/c'/ | bgd'b | a/g/f/e/ d/e/f/g/ |
aabb | c'/d'/b/c'/ a/b/g/a/ | c4 & fdef | gbg !D.C! :|

